X:045
T:McKenzie Hay
C:James Scott Skinner
Z:Nigel Gatherer
M:4/4
L:1/8
K:D
G|F<DF>A d2 d>f|e>cd>b c<aa>=c|B<Gd>B A2 F>D|
E>A^G>B (3ABA (3=GFE|F<DF>A d2 d>f|e>cd>b c<aa>=c|
(3BGB (3dcB (3Afe (3dcB|(3ABA (3GFE F<D D||
g|f<dg>e a2 f>d|e>cd>B c<AA>g|fdge afbg|a>fg>f f<dd>e|
f<dg>e a2 f>d|e>cd>B c<AA=c|(3BGB (3dcB (3Aag (3fed|
(3cBA (3GFE f<D D|]
<end>
<start>
